brandFactory_export/3.Masa/Ajustes_3Masa.svg

<?xml version="1.0" encoding="UTF-8"?>
<svg width="24px" height="24px" viewBox="0 0 24 24" version="1.1" xmlns="http://www.w3.org/2000/svg" xmlns:xlink="http://www.w3.org/1999/xlink">
    <title>3.Masa/Ajustes_3Masa</title>
    <g id="Symbols" stroke="none" stroke-width="1" fill="none" fill-rule="evenodd">
        <g id="3.Masa/Ajustes_3Masa" fill="#5CB615" fill-rule="nonzero">
            <path d="M22.4336134,9.73109244 L20.2117647,9.73109244 C20.0605042,8.79327731 19.7983193,7.94285714 19.4285714,7.2 L21.0722689,5.55630252 C21.5361345,5.08907563 21.5361345,4.33613445 21.0722689,3.86890756 L19.7512605,2.5512605 C19.2840336,2.08739496 18.5310924,2.08739496 18.0638655,2.5512605 L16.4201681,4.19495798 C15.6369748,3.81176471 14.8302521,3.56302521 13.8890756,3.41176471 L13.8890756,1.18655462 C13.8890756,0.537815126 13.3613445,0.0100840336 12.712605,0.0100840336 L10.907563,0.0100840336 C10.2588235,0.0100840336 9.73109244,0.537815126 9.73109244,1.18655462 L9.73109244,3.41176471 C8.79327731,3.56302521 7.94285714,3.82521008 7.2,4.19495798 L5.55630252,2.5512605 C5.08907563,2.08739496 4.33613445,2.08739496 3.86890756,2.5512605 L2.5512605,3.86890756 C2.08739496,4.33613445 2.08739496,5.08907563 2.5512605,5.55630252 L4.19159664,7.19663866 C3.81176471,7.86890756 3.5394958,8.95462185 3.41176471,9.73109244 L1.18655462,9.73109244 C0.537815126,9.73109244 0.0100840336,10.2588235 0.0100840336,10.907563 L0.0100840336,12.712605 C0.0100840336,13.3613445 0.537815126,13.8890756 1.18655462,13.8890756 L3.41176471,13.8890756 C3.5394958,14.6689076 3.81176471,15.7512605 4.19159664,16.4235294 L2.5512605,18.0638655 C2.08739496,18.5310924 2.08739496,19.2840336 2.5512605,19.7512605 L3.86890756,21.0689076 C4.33613445,21.5327731 5.08907563,21.5327731 5.55630252,21.0689076 L7.2,19.4252101 C7.94285714,19.794958 8.79327731,20.0571429 9.73109244,20.2084034 L9.73109244,22.4336134 C9.73109244,23.0823529 10.2588235,23.610084 10.907563,23.610084 L12.712605,23.610084 C13.3613445,23.610084 13.8890756,23.0823529 13.8890756,22.4336134 L13.8890756,20.2084034 C14.8302521,20.0571429 15.6369748,19.8084034 16.4201681,19.4252101 L18.0638655,21.0689076 C18.5310924,21.5327731 19.2840336,21.5327731 19.7512605,21.0689076 L21.0689076,19.7512605 C21.5327731,19.2840336 21.5327731,18.5310924 21.0689076,18.0638655 L19.4285714,16.4235294 C19.7983193,15.6806723 20.0605042,14.8302521 20.2117647,13.892437 L22.4369748,13.892437 C23.0857143,13.892437 23.6134454,13.3647059 23.6134454,12.7159664 L23.6134454,10.9109244 C23.610084,10.2588235 23.0857143,9.73109244 22.4336134,9.73109244 Z M11.8117647,8.53445378 C14.0470588,8.53445378 15.0890756,9.57647059 15.0890756,11.8117647 C15.0890756,14.0470588 14.0470588,15.0890756 11.8117647,15.0890756 C9.57647059,15.0890756 8.53445378,14.0470588 8.53445378,11.8117647 C8.53445378,9.57647059 9.57647059,8.53445378 11.8117647,8.53445378 L11.8117647,8.53445378 Z" id="Ajustes_3Masa"></path>
        </g>
    </g>
</svg>

<svg width="24" height="24" viewBox="0 0 24 24" xmlns="http://www.w3.org/2000/svg"><path d="M22.434 9.731h-2.222c-.151-.938-.414-1.788-.783-2.531l1.643-1.644a1.197 1.197 0 000-1.687l-1.32-1.318a1.197 1.197 0 00-1.688 0L16.42 4.195a8.768 8.768 0 00-2.53-.783V1.187c0-.65-.529-1.177-1.177-1.177h-1.805c-.65 0-1.177.528-1.177 1.177v2.225c-.938.151-1.788.413-2.531.783L5.556 2.551a1.197 1.197 0 00-1.687 0L2.55 3.87a1.197 1.197 0 000 1.687l1.64 1.64c-.38.673-.652 1.759-.78 2.535H1.188c-.65 0-1.177.528-1.177 1.177v1.805c0 .648.528 1.176 1.177 1.176h2.225c.127.78.4 1.862.78 2.535l-1.64 1.64a1.197 1.197 0 000 1.687l1.317 1.318c.467.464 1.22.464 1.687 0L7.2 19.425c.743.37 1.593.632 2.531.783v2.226c0 .648.528 1.176 1.177 1.176h1.805c.648 0 1.176-.528 1.176-1.176v-2.226a8.768 8.768 0 002.531-.783l1.644 1.644c.467.464 1.22.464 1.687 0l1.318-1.318a1.197 1.197 0 000-1.687l-1.64-1.64c.37-.743.632-1.594.783-2.532h2.225c.649 0 1.176-.527 1.176-1.176v-1.805a1.181 1.181 0 00-1.18-1.18zM11.812 8.534c2.235 0 3.277 1.042 3.277 3.278 0 2.235-1.042 3.277-3.277 3.277-2.236 0-3.278-1.042-3.278-3.277 0-2.236 1.042-3.278 3.278-3.278z" fill="#5CB615" fill-rule="nonzero"/></svg>
